X:1
T:Title
%%score { ( 1 4 5 ) | ( 2 3 ) }
L:1/8
M:6/8
K:E
V:1 treble nm="Grand Piano"
V:4 treble 
V:5 treble 
V:2 bass 
V:3 bass 
V:1
 z3 z2[Q:1/4=100] E | G2 G A2 A | B3- B2 G | [DF]2 [DF] [EG]2 [FA] | G3- G2 E | G2 G A2 B | %6
 c3- c2 A | GF[EG] [B,DA]2 [A,B,D] | [G,B,E]6 | .[GB]6 | B3 A3 | .[FA]6 | [B,FA]3 G2 E | %13
 G2 G A2 B | c3 A2 F | B2 G [DA][EG][DF] |[M:5/8] [B,E]-[B,E]- [B,E]3 |] %17
V:2
 z3 z2 [E,G,] | [E,B,E]2 [E,B,E] [F,B,D]2 [F,B,D] | [G,B,E]3- [G,B,E]2 [E,B,E] | %3
 [B,,B,]2 [B,,B,] [B,,B,]2 [B,,B,] | [E,B,E]3- [E,B,E]2 [E,G,] | %5
 [E,B,E]2 [E,B,E] [F,B,D]2[K:treble] [G,B,E] | [A,E]3- [A,E]2 [A,CE] | .B,3[K:bass] z3 | E,6 | %9
 E,2 E, z A[E,B,E] | [F,B,D]3 [F,B,F]3 | [B,,B,]2 B,, z GB,, | E,3 [E,B,E]2 [E,G,] | %13
 [E,B,E]2 [E,B,E] [F,B,D]2[K:treble] [G,B,E] | [A,E]3 [A,CE]2 [A,CE] | %15
 [B,EG]2[K:bass] [B,E] [B,,B,]2 [B,,A,] |[M:5/8] [E,G,]-[E,G,]- [E,G,]3 |] %17
V:3
 x6 | x6 | x6 | x6 | x6 | x5[K:treble] x | x6 | ED[K:bass]B, B,,2 B,, | x6 | z3 .E,3 | x6 | %11
 z3 .B,,3 | x6 | x5[K:treble] x | x6 | x2[K:bass] x4 |[M:5/8] x5 |] %17
V:4
 x6 | x6 | x6 | x6 | x6 | x6 | x6 | x6 | x6 | E2 E z cG | x6 | z2 B, z B[B,DF] | x6 | x6 | x6 | %15
 x6 |[M:5/8] x5 |] %17
V:5
 x6 | x6 | x6 | x6 | x6 | x6 | x6 | x6 | x6 | z3 .E3 | x6 | z3 .B,3 | x6 | x6 | x6 | x6 | %16
[M:5/8] x5 |] %17

